icons/dark/asm.svg

<svg width="16" height="16" viewBox="0 0 16 16" fill="none" xmlns="http://www.w3.org/2000/svg">
<g clip-path="url(#clip0_7_207)">
<path d="M9.70703 1.29297L12.707 4.29297L13 5V14L12 15H10V14H12V6H8V2H3V10H2V2L3 1H9L9.70703 1.29297ZM9 5H12L9 2V5Z" fill="#C5C5C5"/>
<path d="M2.05128 14.2333H1.01026L0.823077 15H-0.0564103L1.03077 11.4462H2.05128L3.13846 15H2.23846L2.05128 14.2333ZM1.14359 13.6231H1.91282L1.52821 12.0513L1.14359 13.6231ZM5.98899 13.9615C5.98899 14.1821 5.93087 14.3769 5.81463 14.5462C5.7001 14.7154 5.53515 14.8479 5.31976 14.9436C5.10438 15.0393 4.8454 15.0872 4.54284 15.0872C4.2078 15.0872 3.9266 15.0385 3.69925 14.941C3.47361 14.8419 3.28643 14.7197 3.13771 14.5744L3.56335 14.1026C3.69498 14.2171 3.84027 14.306 3.99925 14.3692C4.15822 14.4308 4.33258 14.4615 4.52233 14.4615C4.64027 14.4615 4.74369 14.4444 4.83258 14.4103C4.92147 14.3761 4.9907 14.3265 5.04027 14.2615C5.08985 14.1966 5.11463 14.1179 5.11463 14.0256C5.11463 13.9385 5.09498 13.865 5.05566 13.8051C5.01634 13.7453 4.94968 13.6915 4.85566 13.6436C4.76335 13.5957 4.63429 13.547 4.46848 13.4974C4.19156 13.412 3.96848 13.3179 3.79925 13.2154C3.63173 13.1128 3.50951 12.994 3.43258 12.859C3.35737 12.7239 3.31976 12.5667 3.31976 12.3872C3.31976 12.1701 3.37959 11.9846 3.49925 11.8308C3.62062 11.6769 3.78301 11.5598 3.98643 11.4795C4.18985 11.3974 4.41378 11.3564 4.65822 11.3564C4.93344 11.3564 5.17617 11.3966 5.38643 11.4769C5.59668 11.5556 5.77874 11.6684 5.93258 11.8154L5.53515 12.2718C5.41549 12.1709 5.28643 12.0966 5.14797 12.0487C5.00951 11.9991 4.86848 11.9744 4.72489 11.9744C4.61891 11.9744 4.52574 11.988 4.4454 12.0154C4.36506 12.041 4.30267 12.0795 4.25822 12.1308C4.21378 12.1821 4.19156 12.2462 4.19156 12.3231C4.19156 12.3983 4.21292 12.4615 4.25566 12.5128C4.29839 12.5641 4.37275 12.6128 4.47874 12.659C4.58472 12.7034 4.73173 12.7556 4.91976 12.8154C5.14369 12.8838 5.33515 12.9658 5.49412 13.0615C5.6548 13.1556 5.77703 13.2744 5.86079 13.4179C5.94626 13.5615 5.98899 13.7427 5.98899 13.9615ZM8.93952 11.4462L9.13952 15H8.40619L8.3626 13.4795C8.35918 13.3376 8.35747 13.2111 8.35747 13.1C8.35918 12.9889 8.36175 12.8846 8.36516 12.7872C8.36858 12.688 8.37371 12.5889 8.38055 12.4897C8.3891 12.3889 8.39764 12.2795 8.40619 12.1615L8.00619 14.3949H7.37029L6.93952 12.1615C6.94978 12.2744 6.95833 12.3812 6.96516 12.4821C6.97371 12.5812 6.97969 12.6812 6.98311 12.7821C6.98653 12.8829 6.9891 12.9915 6.99081 13.1077C6.99251 13.2222 6.99166 13.3504 6.98824 13.4923L6.9626 15H6.24209L6.44209 11.4462H7.30619L7.70106 13.7436L8.07542 11.4462H8.93952Z" fill="#C5C5C5"/>
</g>
<defs>
<clipPath id="clip0_7_207">
<rect width="16" height="16" fill="white"/>
</clipPath>
</defs>
</svg>

<svg xmlns="http://www.w3.org/2000/svg" width="16" height="16" fill="none" xmlns:v="https://vecta.io/nano"><g clip-path="url(#A)" fill="#c5c5c5"><path d="M9.707 1.293l3 3L13 5v9l-1 1h-2v-1h2V6H8V2H3v8H2V2l1-1h6l.707.293zM9 5h3L9 2v3zm-6.949 9.233H1.01L.823 15h-.879l1.087-3.554h1.021L3.138 15h-.9l-.187-.767zm-.908-.61h.769l-.385-1.572-.385 1.572zm4.845.338a1.01 1.01 0 0 1-.174.585 1.13 1.13 0 0 1-.495.397c-.216.095-.474.144-.777.144-.335 0-.616-.049-.844-.146s-.413-.221-.562-.367l.426-.472a1.51 1.51 0 0 0 .436.267c.159.062.333.092.523.092.118 0 .221-.017.31-.051s.158-.084.208-.149.074-.144.074-.236c0-.087-.02-.161-.059-.221s-.106-.114-.2-.162a2.31 2.31 0 0 0-.387-.146c-.277-.085-.5-.18-.669-.282s-.29-.221-.367-.356-.113-.292-.113-.472a.88.88 0 0 1 .179-.556c.119-.153.284-.271.487-.351a1.78 1.78 0 0 1 .672-.123c.275 0 .518.04.728.12s.392.191.546.338l-.397.456a1.22 1.22 0 0 0-.387-.223 1.28 1.28 0 0 0-.423-.074c-.106 0-.199.014-.279.041s-.143.064-.187.115-.067.115-.067.192.021.138.064.19.117.1.223.146.253.097.441.156a2.57 2.57 0 0 1 .574.246c.161.094.283.213.367.356s.128.325.128.544zm2.951-2.515L9.14 15h-.733l-.044-1.521-.005-.38.008-.313.015-.298.026-.328-.4 2.233H7.37l-.431-2.233.026.321.018.3.008.326-.003.385L6.963 15h-.721l.2-3.554h.864l.395 2.297.374-2.297h.864z"/></g><defs><clipPath id="A"><path fill="#fff" d="M0 0h16v16H0z"/></clipPath></defs></svg>
